X: 213
T: Boston Assembly
%R: march, reel
Z: 2017 John Chambers <jc:trillian.mit.edu>
B: John Treat - "Gamut for the Fifes", 1779, p.21 #3
F: https://archive.org/details/GamutFortheFifes
N: A significant chunk of the page's lower-right corner is missing.
M: C|
L: 1/8
K: C
% - - - - - - - - - - - - - - - - - - - - - - - - -
BA |\
G2c2 cBcd | e3 ccc ef | g2g2 gaga | gfed cBAG |\
G2c2 cBcd | e3 c"?"z2 "?"z2 | "?"z2"?"z2 "?"z2"?"z2 | g4 :|
|: fagf |\
e2c2 A2a2 | fefg a2f2 | d3 B2 G3 | cBcd B2G2 |\
Dcc2 cBcd | "?"z2"?"z2 "?"z2"?"z2 | "?"z2"?"z2 "?"z4  | "?"z4 :|
"Below the tune in smaller notes:"
g2g2 edcB | feaf gdB2 || y8 y8 y8 y8 y8 y8 y8 y8
% - - - - - - - - - - - - - - - - - - - - - - - - -
